assets/svg/label-o.svg

<?xml version="1.0" encoding="UTF-8"?>
<svg width="1000px" height="1000px" viewBox="0 0 1000 1000" version="1.1" xmlns="http://www.w3.org/2000/svg" xmlns:xlink="http://www.w3.org/1999/xlink">
    <!-- Generator: sketchtool 52.4 (67378) - http://www.bohemiancoding.com/sketch -->
    <title>label-o</title>
    <desc>Created with sketchtool.</desc>
    <g id="新版图标" stroke="none" stroke-width="1" fill="none" fill-rule="evenodd">
        <g id="label-o" fill="#323233" fill-rule="nonzero">
            <g id="直角-标签管理-线">
                <path d="M777.777778,854.553667 L777.777778,111.111111 L222.222222,111.111111 L222.222222,854.553667 L500,715.664778 L777.777778,854.553667 Z M222.222222,55.5555556 L777.777778,55.5555556 C808.460264,55.5555556 833.333333,80.428625 833.333333,111.111111 L833.333333,944.444444 L500,777.777778 L166.666667,944.444444 L166.666667,111.111111 C166.666667,80.428625 191.539736,55.5555556 222.222222,55.5555556 Z M333.333333,277.777778 L333.333333,333.333333 L666.666667,333.333333 L666.666667,277.777778 L333.333333,277.777778 Z M333.333333,444.444444 L333.333333,500 L666.666667,500 L666.666667,444.444444 L333.333333,444.444444 Z" id="Rectangle"></path>
            </g>
        </g>
    </g>
</svg>

<svg width="1000" height="1000" xmlns="http://www.w3.org/2000/svg"><path d="M777.778 854.554V111.11H222.222v743.443L500 715.664l277.778 138.89zM222.222 55.556h555.556c30.682 0 55.555 24.873 55.555 55.555v833.333L500 777.778 166.667 944.444V111.111c0-30.682 24.873-55.555 55.555-55.555zm111.111 222.222v55.555h333.334v-55.555H333.333zm0 166.666V500h333.334v-55.556H333.333z" fill="#323233" fill-rule="nonzero"/></svg>
